icons/Logos/medium-fill.svg

<svg viewBox="0 0 24 24" xmlns="http://www.w3.org/2000/svg"><path d="M4.00098 3H20.001C20.5533 3 21.001 3.44772 21.001 4V20C21.001 20.5523 20.5533 21 20.001 21H4.00098C3.44869 21 3.00098 20.5523 3.00098 20V4C3.00098 3.44772 3.44869 3 4.00098 3ZM17.3019 15.9403C17.2014 15.8901 17.1512 15.7394 17.1512 15.639V8.00643C17.1512 7.906 17.2014 7.75536 17.3019 7.65493L18.256 6.55021V6.5H14.8413L12.2802 12.9776L9.36765 6.5H5.85249V6.55021L6.75639 7.80557C6.95726 8.00643 7.00747 8.30771 7.00747 8.55879V14.0824C7.05769 14.3836 7.00747 14.7351 6.85682 15.0364L5.50098 16.8944V16.9446H9.11657V16.8944L7.76072 15.0866C7.61007 14.7854 7.55985 14.4841 7.61007 14.1326V9.11114C7.66029 9.21157 7.7105 9.21157 7.76072 9.41243L11.1754 17.045H11.2257L14.54 8.75964C14.4897 9.06093 14.4897 9.41243 14.4897 9.6635V15.5888C14.4897 15.7394 14.4395 15.8399 14.3391 15.9403L13.3348 16.8944V16.9446H18.256V16.8944L17.3019 15.9403Z"/></svg>

<svg xmlns="http://www.w3.org/2000/svg" viewBox="0 0 24 24">
    <g>
        <path fill="none" d="M0 0h24v24H0z"/>
        <path d="M4 3h16a1 1 0 0 1 1 1v16a1 1 0 0 1-1 1H4a1 1 0 0 1-1-1V4a1 1 0 0 1 1-1zm13.3 12.94c-.1-.05-.15-.2-.15-.301V8.006c0-.1.05-.25.15-.351l.955-1.105V6.5H14.84l-2.56 6.478L9.366 6.5H5.852v.05l.903 1.256c.201.2.251.502.251.753v5.523c.05.302 0 .653-.15.954L5.5 16.894v.05h3.616v-.05L7.76 15.087c-.15-.302-.201-.603-.15-.954V9.11c.05.1.1.1.15.301l3.414 7.633h.05L14.54 8.76c-.05.3-.05.652-.05.904v5.925c0 .15-.05.25-.15.351l-1.005.954v.05h4.921v-.05l-.954-.954z"/>
    </g>
</svg>
